(Exported by FreeCAD)
(Post Processor: grbl_post)
(Output Time:2024-10-29 12:06:17.942936)
(Begin preamble)
G17 G90
G21
(Begin operation: Fixture)
(Path: Fixture)
G54
(Finish operation: Fixture)
(Begin operation: endmill_3mm001)
(Path: endmill_3mm001)
(endmill_3mm001)
(Begin toolchange)
( M6 T2.0 )
M3 S10000.0
(Finish operation: endmill_3mm001)
(Begin operation: Profile)
(Path: Profile)
(Profile)
(Compensated Tool Path. Diameter: 3.0)
G0 Z8.000
G0 X10.848 Y-4.152
G0 Z6.000
G1 X10.848 Y-4.152 Z2.500 F180.000
G2 X10.689 Y-4.955 Z2.500 I-0.348 J-0.348 K0.000 F180.000
G2 X10.311 Y-4.045 Z2.500 I-0.189 J0.455 K0.000 F180.000
G2 X10.848 Y-4.152 Z2.500 I0.189 J-0.455 K0.000 F180.000
G1 X10.848 Y-4.152 Z2.000 F180.000
G2 X10.689 Y-4.955 Z2.000 I-0.348 J-0.348 K0.000 F180.000
G2 X10.311 Y-4.045 Z2.000 I-0.189 J0.455 K0.000 F180.000
G2 X10.848 Y-4.152 Z2.000 I0.189 J-0.455 K0.000 F180.000
G1 X10.848 Y-4.152 Z1.500 F180.000
G2 X10.689 Y-4.955 Z1.500 I-0.348 J-0.348 K0.000 F180.000
G2 X10.311 Y-4.045 Z1.500 I-0.189 J0.455 K0.000 F180.000
G2 X10.848 Y-4.152 Z1.500 I0.189 J-0.455 K0.000 F180.000
G1 X10.848 Y-4.152 Z1.000 F180.000
G2 X10.689 Y-4.955 Z1.000 I-0.348 J-0.348 K0.000 F180.000
G2 X10.311 Y-4.045 Z1.000 I-0.189 J0.455 K0.000 F180.000
G2 X10.848 Y-4.152 Z1.000 I0.189 J-0.455 K0.000 F180.000
G1 X10.848 Y-4.152 Z0.500 F180.000
G2 X10.689 Y-4.955 Z0.500 I-0.348 J-0.348 K0.000 F180.000
G2 X10.311 Y-4.045 Z0.500 I-0.189 J0.455 K0.000 F180.000
G2 X10.848 Y-4.152 Z0.500 I0.189 J-0.455 K0.000 F180.000
G1 X10.848 Y-4.152 Z0.000 F180.000
G2 X10.689 Y-4.955 Z0.000 I-0.348 J-0.348 K0.000 F180.000
G2 X10.311 Y-4.045 Z0.000 I-0.189 J0.455 K0.000 F180.000
G2 X10.848 Y-4.152 Z0.000 I0.189 J-0.455 K0.000 F180.000
G0 Z8.000
G0 Z8.000
G0 X10.848 Y-4.152
G0 X20.508 Y-4.483
G0 X20.508 Y-4.483 Z6.000
G1 X20.508 Y-4.483 Z2.500 F180.000
G2 X20.811 Y-4.045 Z2.500 I0.492 J-0.017 K0.000 F180.000
G2 X21.189 Y-4.955 Z2.500 I0.189 J-0.455 K0.000 F180.000
G2 X20.508 Y-4.483 Z2.500 I-0.189 J0.455 K0.000 F180.000
G1 X20.508 Y-4.483 Z2.000 F180.000
G2 X20.811 Y-4.045 Z2.000 I0.492 J-0.017 K0.000 F180.000
G2 X21.189 Y-4.955 Z2.000 I0.189 J-0.455 K0.000 F180.000
G2 X20.508 Y-4.483 Z2.000 I-0.189 J0.455 K0.000 F180.000
G1 X20.508 Y-4.483 Z1.500 F180.000
G2 X20.811 Y-4.045 Z1.500 I0.492 J-0.017 K0.000 F180.000
G2 X21.189 Y-4.955 Z1.500 I0.189 J-0.455 K0.000 F180.000
G2 X20.508 Y-4.483 Z1.500 I-0.189 J0.455 K0.000 F180.000
G1 X20.508 Y-4.483 Z1.000 F180.000
G2 X20.811 Y-4.045 Z1.000 I0.492 J-0.017 K0.000 F180.000
G2 X21.189 Y-4.955 Z1.000 I0.189 J-0.455 K0.000 F180.000
G2 X20.508 Y-4.483 Z1.000 I-0.189 J0.455 K0.000 F180.000
G1 X20.508 Y-4.483 Z0.500 F180.000
G2 X20.811 Y-4.045 Z0.500 I0.492 J-0.017 K0.000 F180.000
G2 X21.189 Y-4.955 Z0.500 I0.189 J-0.455 K0.000 F180.000
G2 X20.508 Y-4.483 Z0.500 I-0.189 J0.455 K0.000 F180.000
G1 X20.508 Y-4.483 Z0.000 F180.000
G2 X20.811 Y-4.045 Z0.000 I0.492 J-0.017 K0.000 F180.000
G2 X21.189 Y-4.955 Z0.000 I0.189 J-0.455 K0.000 F180.000
G2 X20.508 Y-4.483 Z0.000 I-0.189 J0.455 K0.000 F180.000
G0 Z8.000
G0 Z8.000
G0 X20.508 Y-4.483
G0 X31.007 Y-4.499
G0 X31.007 Y-4.499 Z6.000
G1 X31.007 Y-4.499 Z2.500 F180.000
G2 X31.311 Y-4.045 Z2.500 I0.493 J-0.001 K0.000 F180.000
G2 X31.955 Y-4.311 Z2.500 I0.189 J-0.455 K0.000 F180.000
G2 X31.689 Y-4.955 Z2.500 I-0.455 J-0.189 K0.000 F180.000
G2 X31.007 Y-4.499 Z2.500 I-0.189 J0.455 K0.000 F180.000
G1 X31.007 Y-4.499 Z2.000 F180.000
G2 X31.311 Y-4.045 Z2.000 I0.493 J-0.001 K0.000 F180.000
G2 X31.955 Y-4.311 Z2.000 I0.189 J-0.455 K0.000 F180.000
G2 X31.689 Y-4.955 Z2.000 I-0.455 J-0.189 K0.000 F180.000
G2 X31.007 Y-4.499 Z2.000 I-0.189 J0.455 K0.000 F180.000
G1 X31.007 Y-4.499 Z1.500 F180.000
G2 X31.311 Y-4.045 Z1.500 I0.493 J-0.001 K0.000 F180.000
G2 X31.955 Y-4.311 Z1.500 I0.189 J-0.455 K0.000 F180.000
G2 X31.689 Y-4.955 Z1.500 I-0.455 J-0.189 K0.000 F180.000
G2 X31.007 Y-4.499 Z1.500 I-0.189 J0.455 K0.000 F180.000
G1 X31.007 Y-4.499 Z1.000 F180.000
G2 X31.311 Y-4.045 Z1.000 I0.493 J-0.001 K0.000 F180.000
G2 X31.955 Y-4.311 Z1.000 I0.189 J-0.455 K0.000 F180.000
G2 X31.689 Y-4.955 Z1.000 I-0.455 J-0.189 K0.000 F180.000
G2 X31.007 Y-4.499 Z1.000 I-0.189 J0.455 K0.000 F180.000
G1 X31.007 Y-4.499 Z0.500 F180.000
G2 X31.311 Y-4.045 Z0.500 I0.493 J-0.001 K0.000 F180.000
G2 X31.955 Y-4.311 Z0.500 I0.189 J-0.455 K0.000 F180.000
G2 X31.689 Y-4.955 Z0.500 I-0.455 J-0.189 K0.000 F180.000
G2 X31.007 Y-4.499 Z0.500 I-0.189 J0.455 K0.000 F180.000
G1 X31.007 Y-4.499 Z0.000 F180.000
G2 X31.311 Y-4.045 Z0.000 I0.493 J-0.001 K0.000 F180.000
G2 X31.955 Y-4.311 Z0.000 I0.189 J-0.455 K0.000 F180.000
G2 X31.689 Y-4.955 Z0.000 I-0.455 J-0.189 K0.000 F180.000
G2 X31.007 Y-4.499 Z0.000 I-0.189 J0.455 K0.000 F180.000
G0 Z8.000
G0 Z8.000
G0 X31.007 Y-4.499
G0 X41.507 Y-4.500
G0 X41.507 Y-4.500 Z6.000
G1 X41.507 Y-4.500 Z2.500 F180.000
G2 X41.811 Y-4.045 Z2.500 I0.493 J-0.000 K0.000 F180.000
G2 X42.455 Y-4.311 Z2.500 I0.189 J-0.455 K0.000 F180.000
G2 X42.189 Y-4.955 Z2.500 I-0.455 J-0.189 K0.000 F180.000
G2 X41.507 Y-4.500 Z2.500 I-0.189 J0.455 K0.000 F180.000
G1 X41.507 Y-4.500 Z2.000 F180.000
G2 X41.811 Y-4.045 Z2.000 I0.493 J-0.000 K0.000 F180.000
G2 X42.455 Y-4.311 Z2.000 I0.189 J-0.455 K0.000 F180.000
G2 X42.189 Y-4.955 Z2.000 I-0.455 J-0.189 K0.000 F180.000
G2 X41.507 Y-4.500 Z2.000 I-0.189 J0.455 K0.000 F180.000
G1 X41.507 Y-4.500 Z1.500 F180.000
G2 X41.811 Y-4.045 Z1.500 I0.493 J-0.000 K0.000 F180.000
G2 X42.455 Y-4.311 Z1.500 I0.189 J-0.455 K0.000 F180.000
G2 X42.189 Y-4.955 Z1.500 I-0.455 J-0.189 K0.000 F180.000
G2 X41.507 Y-4.500 Z1.500 I-0.189 J0.455 K0.000 F180.000
G1 X41.507 Y-4.500 Z1.000 F180.000
G2 X41.811 Y-4.045 Z1.000 I0.493 J-0.000 K0.000 F180.000
G2 X42.455 Y-4.311 Z1.000 I0.189 J-0.455 K0.000 F180.000
G2 X42.189 Y-4.955 Z1.000 I-0.455 J-0.189 K0.000 F180.000
G2 X41.507 Y-4.500 Z1.000 I-0.189 J0.455 K0.000 F180.000
G1 X41.507 Y-4.500 Z0.500 F180.000
G2 X41.811 Y-4.045 Z0.500 I0.493 J-0.000 K0.000 F180.000
G2 X42.455 Y-4.311 Z0.500 I0.189 J-0.455 K0.000 F180.000
G2 X42.189 Y-4.955 Z0.500 I-0.455 J-0.189 K0.000 F180.000
G2 X41.507 Y-4.500 Z0.500 I-0.189 J0.455 K0.000 F180.000
G1 X41.507 Y-4.500 Z0.000 F180.000
G2 X41.811 Y-4.045 Z0.000 I0.493 J-0.000 K0.000 F180.000
G2 X42.455 Y-4.311 Z0.000 I0.189 J-0.455 K0.000 F180.000
G2 X42.189 Y-4.955 Z0.000 I-0.455 J-0.189 K0.000 F180.000
G2 X41.507 Y-4.500 Z0.000 I-0.189 J0.455 K0.000 F180.000
G0 Z8.000
G0 Z8.000
G0 X41.507 Y-4.500
G0 X52.007 Y-4.500
G0 X52.007 Y-4.500 Z6.000
G1 X52.007 Y-4.500 Z2.500 F180.000
G2 X52.311 Y-4.045 Z2.500 I0.493 J-0.000 K0.000 F180.000
G2 X52.955 Y-4.311 Z2.500 I0.189 J-0.455 K0.000 F180.000
G2 X52.689 Y-4.955 Z2.500 I-0.455 J-0.189 K0.000 F180.000
G2 X52.007 Y-4.500 Z2.500 I-0.189 J0.455 K0.000 F180.000
G1 X52.007 Y-4.500 Z2.000 F180.000
G2 X52.311 Y-4.045 Z2.000 I0.493 J-0.000 K0.000 F180.000
G2 X52.955 Y-4.311 Z2.000 I0.189 J-0.455 K0.000 F180.000
G2 X52.689 Y-4.955 Z2.000 I-0.455 J-0.189 K0.000 F180.000
G2 X52.007 Y-4.500 Z2.000 I-0.189 J0.455 K0.000 F180.000
G1 X52.007 Y-4.500 Z1.500 F180.000
G2 X52.311 Y-4.045 Z1.500 I0.493 J-0.000 K0.000 F180.000
G2 X52.955 Y-4.311 Z1.500 I0.189 J-0.455 K0.000 F180.000
G2 X52.689 Y-4.955 Z1.500 I-0.455 J-0.189 K0.000 F180.000
G2 X52.007 Y-4.500 Z1.500 I-0.189 J0.455 K0.000 F180.000
G1 X52.007 Y-4.500 Z1.000 F180.000
G2 X52.311 Y-4.045 Z1.000 I0.493 J-0.000 K0.000 F180.000
G2 X52.955 Y-4.311 Z1.000 I0.189 J-0.455 K0.000 F180.000
G2 X52.689 Y-4.955 Z1.000 I-0.455 J-0.189 K0.000 F180.000
G2 X52.007 Y-4.500 Z1.000 I-0.189 J0.455 K0.000 F180.000
G1 X52.007 Y-4.500 Z0.500 F180.000
G2 X52.311 Y-4.045 Z0.500 I0.493 J-0.000 K0.000 F180.000
G2 X52.955 Y-4.311 Z0.500 I0.189 J-0.455 K0.000 F180.000
G2 X52.689 Y-4.955 Z0.500 I-0.455 J-0.189 K0.000 F180.000
G2 X52.007 Y-4.500 Z0.500 I-0.189 J0.455 K0.000 F180.000
G1 X52.007 Y-4.500 Z0.000 F180.000
G2 X52.311 Y-4.045 Z0.000 I0.493 J-0.000 K0.000 F180.000
G2 X52.955 Y-4.311 Z0.000 I0.189 J-0.455 K0.000 F180.000
G2 X52.689 Y-4.955 Z0.000 I-0.455 J-0.189 K0.000 F180.000
G2 X52.007 Y-4.500 Z0.000 I-0.189 J0.455 K0.000 F180.000
G0 Z8.000
G0 Z8.000
G0 X52.007 Y-4.500
G0 X62.507 Y-4.500
G0 X62.507 Y-4.500 Z6.000
G1 X62.507 Y-4.500 Z2.500 F180.000
G2 X62.811 Y-4.045 Z2.500 I0.493 J-0.000 K0.000 F180.000
G2 X63.455 Y-4.311 Z2.500 I0.189 J-0.455 K0.000 F180.000
G2 X63.189 Y-4.955 Z2.500 I-0.455 J-0.189 K0.000 F180.000
G2 X62.507 Y-4.500 Z2.500 I-0.189 J0.455 K0.000 F180.000
G1 X62.507 Y-4.500 Z2.000 F180.000
G2 X62.811 Y-4.045 Z2.000 I0.493 J-0.000 K0.000 F180.000
G2 X63.455 Y-4.311 Z2.000 I0.189 J-0.455 K0.000 F180.000
G2 X63.189 Y-4.955 Z2.000 I-0.455 J-0.189 K0.000 F180.000
G2 X62.507 Y-4.500 Z2.000 I-0.189 J0.455 K0.000 F180.000
G1 X62.507 Y-4.500 Z1.500 F180.000
G2 X62.811 Y-4.045 Z1.500 I0.493 J-0.000 K0.000 F180.000
G2 X63.455 Y-4.311 Z1.500 I0.189 J-0.455 K0.000 F180.000
G2 X63.189 Y-4.955 Z1.500 I-0.455 J-0.189 K0.000 F180.000
G2 X62.507 Y-4.500 Z1.500 I-0.189 J0.455 K0.000 F180.000
G1 X62.507 Y-4.500 Z1.000 F180.000
G2 X62.811 Y-4.045 Z1.000 I0.493 J-0.000 K0.000 F180.000
G2 X63.455 Y-4.311 Z1.000 I0.189 J-0.455 K0.000 F180.000
G2 X63.189 Y-4.955 Z1.000 I-0.455 J-0.189 K0.000 F180.000
G2 X62.507 Y-4.500 Z1.000 I-0.189 J0.455 K0.000 F180.000
G1 X62.507 Y-4.500 Z0.500 F180.000
G2 X62.811 Y-4.045 Z0.500 I0.493 J-0.000 K0.000 F180.000
G2 X63.455 Y-4.311 Z0.500 I0.189 J-0.455 K0.000 F180.000
G2 X63.189 Y-4.955 Z0.500 I-0.455 J-0.189 K0.000 F180.000
G2 X62.507 Y-4.500 Z0.500 I-0.189 J0.455 K0.000 F180.000
G1 X62.507 Y-4.500 Z0.000 F180.000
G2 X62.811 Y-4.045 Z0.000 I0.493 J-0.000 K0.000 F180.000
G2 X63.455 Y-4.311 Z0.000 I0.189 J-0.455 K0.000 F180.000
G2 X63.189 Y-4.955 Z0.000 I-0.455 J-0.189 K0.000 F180.000
G2 X62.507 Y-4.500 Z0.000 I-0.189 J0.455 K0.000 F180.000
G0 Z8.000
G0 Z8.000
G0 X62.507 Y-4.500
G0 X63.500 Y-31.500
G0 X63.500 Y-31.500 Z6.000
G1 X63.500 Y-31.500 Z2.500 F180.000
G1 X64.500 Y-31.500 Z2.500 F180.000
G1 X64.500 Y-35.500 Z2.500 F180.000
G1 X63.500 Y-35.500 Z2.500 F180.000
G1 X63.500 Y-31.500 Z2.500 F180.000
G1 X63.500 Y-31.500 Z2.000 F180.000
G1 X64.500 Y-31.500 Z2.000 F180.000
G1 X64.500 Y-35.500 Z2.000 F180.000
G1 X63.500 Y-35.500 Z2.000 F180.000
G1 X63.500 Y-31.500 Z2.000 F180.000
G1 X63.500 Y-31.500 Z1.500 F180.000
G1 X64.500 Y-31.500 Z1.500 F180.000
G1 X64.500 Y-35.500 Z1.500 F180.000
G1 X63.500 Y-35.500 Z1.500 F180.000
G1 X63.500 Y-31.500 Z1.500 F180.000
G1 X63.500 Y-31.500 Z1.000 F180.000
G1 X64.500 Y-31.500 Z1.000 F180.000
G1 X64.500 Y-35.500 Z1.000 F180.000
G1 X63.500 Y-35.500 Z1.000 F180.000
G1 X63.500 Y-31.500 Z1.000 F180.000
G1 X63.500 Y-31.500 Z0.500 F180.000
G1 X64.500 Y-31.500 Z0.500 F180.000
G1 X64.500 Y-35.500 Z0.500 F180.000
G1 X63.500 Y-35.500 Z0.500 F180.000
G1 X63.500 Y-31.500 Z0.500 F180.000
G1 X63.500 Y-31.500 Z0.000 F180.000
G1 X64.500 Y-31.500 Z0.000 F180.000
G1 X64.500 Y-35.500 Z0.000 F180.000
G1 X63.500 Y-35.500 Z0.000 F180.000
G1 X63.500 Y-31.500 Z0.000 F180.000
G0 Z8.000
G0 Z8.000
G0 X63.500 Y-31.500
G0 X53.500
G0 X53.500 Z6.000
G1 X53.500 Y-31.500 Z2.500 F180.000
G1 X53.500 Y-35.500 Z2.500 F180.000
G1 X52.500 Y-35.500 Z2.500 F180.000
G1 X52.500 Y-31.500 Z2.500 F180.000
G1 X53.500 Y-31.500 Z2.500 F180.000
G1 X53.500 Y-31.500 Z2.000 F180.000
G1 X53.500 Y-35.500 Z2.000 F180.000
G1 X52.500 Y-35.500 Z2.000 F180.000
G1 X52.500 Y-31.500 Z2.000 F180.000
G1 X53.500 Y-31.500 Z2.000 F180.000
G1 X53.500 Y-31.500 Z1.500 F180.000
G1 X53.500 Y-35.500 Z1.500 F180.000
G1 X52.500 Y-35.500 Z1.500 F180.000
G1 X52.500 Y-31.500 Z1.500 F180.000
G1 X53.500 Y-31.500 Z1.500 F180.000
G1 X53.500 Y-31.500 Z1.000 F180.000
G1 X53.500 Y-35.500 Z1.000 F180.000
G1 X52.500 Y-35.500 Z1.000 F180.000
G1 X52.500 Y-31.500 Z1.000 F180.000
G1 X53.500 Y-31.500 Z1.000 F180.000
G1 X53.500 Y-31.500 Z0.500 F180.000
G1 X53.500 Y-35.500 Z0.500 F180.000
G1 X52.500 Y-35.500 Z0.500 F180.000
G1 X52.500 Y-31.500 Z0.500 F180.000
G1 X53.500 Y-31.500 Z0.500 F180.000
G1 X53.500 Y-31.500 Z0.000 F180.000
G1 X53.500 Y-35.500 Z0.000 F180.000
G1 X52.500 Y-35.500 Z0.000 F180.000
G1 X52.500 Y-31.500 Z0.000 F180.000
G1 X53.500 Y-31.500 Z0.000 F180.000
G0 Z8.000
G0 Z8.000
G0 X53.500 Y-31.500
G0 X42.500
G0 X42.500 Z6.000
G1 X42.500 Y-31.500 Z2.500 F180.000
G1 X42.500 Y-35.500 Z2.500 F180.000
G1 X41.500 Y-35.500 Z2.500 F180.000
G1 X41.500 Y-31.500 Z2.500 F180.000
G1 X42.500 Y-31.500 Z2.500 F180.000
G1 X42.500 Y-31.500 Z2.000 F180.000
G1 X42.500 Y-35.500 Z2.000 F180.000
G1 X41.500 Y-35.500 Z2.000 F180.000
G1 X41.500 Y-31.500 Z2.000 F180.000
G1 X42.500 Y-31.500 Z2.000 F180.000
G1 X42.500 Y-31.500 Z1.500 F180.000
G1 X42.500 Y-35.500 Z1.500 F180.000
G1 X41.500 Y-35.500 Z1.500 F180.000
G1 X41.500 Y-31.500 Z1.500 F180.000
G1 X42.500 Y-31.500 Z1.500 F180.000
G1 X42.500 Y-31.500 Z1.000 F180.000
G1 X42.500 Y-35.500 Z1.000 F180.000
G1 X41.500 Y-35.500 Z1.000 F180.000
G1 X41.500 Y-31.500 Z1.000 F180.000
G1 X42.500 Y-31.500 Z1.000 F180.000
G1 X42.500 Y-31.500 Z0.500 F180.000
G1 X42.500 Y-35.500 Z0.500 F180.000
G1 X41.500 Y-35.500 Z0.500 F180.000
G1 X41.500 Y-31.500 Z0.500 F180.000
G1 X42.500 Y-31.500 Z0.500 F180.000
G1 X42.500 Y-31.500 Z0.000 F180.000
G1 X42.500 Y-35.500 Z0.000 F180.000
G1 X41.500 Y-35.500 Z0.000 F180.000
G1 X41.500 Y-31.500 Z0.000 F180.000
G1 X42.500 Y-31.500 Z0.000 F180.000
G0 Z8.000
G0 Z8.000
G0 X42.500 Y-31.500
G0 X31.500
G0 X31.500 Z6.000
G1 X31.500 Y-31.500 Z2.500 F180.000
G1 X31.500 Y-35.500 Z2.500 F180.000
G1 X30.500 Y-35.500 Z2.500 F180.000
G1 X30.500 Y-31.500 Z2.500 F180.000
G1 X31.500 Y-31.500 Z2.500 F180.000
G1 X31.500 Y-31.500 Z2.000 F180.000
G1 X31.500 Y-35.500 Z2.000 F180.000
G1 X30.500 Y-35.500 Z2.000 F180.000
G1 X30.500 Y-31.500 Z2.000 F180.000
G1 X31.500 Y-31.500 Z2.000 F180.000
G1 X31.500 Y-31.500 Z1.500 F180.000
G1 X31.500 Y-35.500 Z1.500 F180.000
G1 X30.500 Y-35.500 Z1.500 F180.000
G1 X30.500 Y-31.500 Z1.500 F180.000
G1 X31.500 Y-31.500 Z1.500 F180.000
G1 X31.500 Y-31.500 Z1.000 F180.000
G1 X31.500 Y-35.500 Z1.000 F180.000
G1 X30.500 Y-35.500 Z1.000 F180.000
G1 X30.500 Y-31.500 Z1.000 F180.000
G1 X31.500 Y-31.500 Z1.000 F180.000
G1 X31.500 Y-31.500 Z0.500 F180.000
G1 X31.500 Y-35.500 Z0.500 F180.000
G1 X30.500 Y-35.500 Z0.500 F180.000
G1 X30.500 Y-31.500 Z0.500 F180.000
G1 X31.500 Y-31.500 Z0.500 F180.000
G1 X31.500 Y-31.500 Z0.000 F180.000
G1 X31.500 Y-35.500 Z0.000 F180.000
G1 X30.500 Y-35.500 Z0.000 F180.000
G1 X30.500 Y-31.500 Z0.000 F180.000
G1 X31.500 Y-31.500 Z0.000 F180.000
G0 Z8.000
G0 Z8.000
G0 X31.500 Y-31.500
G0 X20.500
G0 X20.500 Z6.000
G1 X20.500 Y-31.500 Z2.500 F180.000
G1 X20.500 Y-35.500 Z2.500 F180.000
G1 X19.500 Y-35.500 Z2.500 F180.000
G1 X19.500 Y-31.500 Z2.500 F180.000
G1 X20.500 Y-31.500 Z2.500 F180.000
G1 X20.500 Y-31.500 Z2.000 F180.000
G1 X20.500 Y-35.500 Z2.000 F180.000
G1 X19.500 Y-35.500 Z2.000 F180.000
G1 X19.500 Y-31.500 Z2.000 F180.000
G1 X20.500 Y-31.500 Z2.000 F180.000
G1 X20.500 Y-31.500 Z1.500 F180.000
G1 X20.500 Y-35.500 Z1.500 F180.000
G1 X19.500 Y-35.500 Z1.500 F180.000
G1 X19.500 Y-31.500 Z1.500 F180.000
G1 X20.500 Y-31.500 Z1.500 F180.000
G1 X20.500 Y-31.500 Z1.000 F180.000
G1 X20.500 Y-35.500 Z1.000 F180.000
G1 X19.500 Y-35.500 Z1.000 F180.000
G1 X19.500 Y-31.500 Z1.000 F180.000
G1 X20.500 Y-31.500 Z1.000 F180.000
G1 X20.500 Y-31.500 Z0.500 F180.000
G1 X20.500 Y-35.500 Z0.500 F180.000
G1 X19.500 Y-35.500 Z0.500 F180.000
G1 X19.500 Y-31.500 Z0.500 F180.000
G1 X20.500 Y-31.500 Z0.500 F180.000
G1 X20.500 Y-31.500 Z0.000 F180.000
G1 X20.500 Y-35.500 Z0.000 F180.000
G1 X19.500 Y-35.500 Z0.000 F180.000
G1 X19.500 Y-31.500 Z0.000 F180.000
G1 X20.500 Y-31.500 Z0.000 F180.000
G0 Z8.000
G0 Z8.000
G0 X20.500 Y-31.500
G0 X9.500
G0 X9.500 Z6.000
G1 X9.500 Y-31.500 Z2.500 F180.000
G1 X9.500 Y-35.500 Z2.500 F180.000
G1 X8.500 Y-35.500 Z2.500 F180.000
G1 X8.500 Y-31.500 Z2.500 F180.000
G1 X9.500 Y-31.500 Z2.500 F180.000
G1 X9.500 Y-31.500 Z2.000 F180.000
G1 X9.500 Y-35.500 Z2.000 F180.000
G1 X8.500 Y-35.500 Z2.000 F180.000
G1 X8.500 Y-31.500 Z2.000 F180.000
G1 X9.500 Y-31.500 Z2.000 F180.000
G1 X9.500 Y-31.500 Z1.500 F180.000
G1 X9.500 Y-35.500 Z1.500 F180.000
G1 X8.500 Y-35.500 Z1.500 F180.000
G1 X8.500 Y-31.500 Z1.500 F180.000
G1 X9.500 Y-31.500 Z1.500 F180.000
G1 X9.500 Y-31.500 Z1.000 F180.000
G1 X9.500 Y-35.500 Z1.000 F180.000
G1 X8.500 Y-35.500 Z1.000 F180.000
G1 X8.500 Y-31.500 Z1.000 F180.000
G1 X9.500 Y-31.500 Z1.000 F180.000
G1 X9.500 Y-31.500 Z0.500 F180.000
G1 X9.500 Y-35.500 Z0.500 F180.000
G1 X8.500 Y-35.500 Z0.500 F180.000
G1 X8.500 Y-31.500 Z0.500 F180.000
G1 X9.500 Y-31.500 Z0.500 F180.000
G1 X9.500 Y-31.500 Z0.000 F180.000
G1 X9.500 Y-35.500 Z0.000 F180.000
G1 X8.500 Y-35.500 Z0.000 F180.000
G1 X8.500 Y-31.500 Z0.000 F180.000
G1 X9.500 Y-31.500 Z0.000 F180.000
G0 Z8.000
G0 Z8.000
(Finish operation: Profile)
(Begin operation: DressupTag)
(Path: DressupTag)
G0 Z8.000
G0 X75.485 Y0.212 Z8.000
G0 X75.485 Y0.212 Z6.000
G1 X75.485 Y0.212 Z2.500 F180.000
G2 X75.500 Y-0.000 Z2.500 I-1.485 J-0.212 K0.000 F180.000
G1 X75.500 Y-15.500 Z2.500 F180.000
G1 X83.000 Y-15.500 Z2.500 F180.000
G2 X84.500 Y-17.000 Z2.500 I-0.000 J-1.500 K0.000 F180.000
G1 X84.500 Y-50.000 Z2.500 F180.000
G2 X83.000 Y-51.500 Z2.500 I-1.500 J0.000 K0.000 F180.000
G1 X-9.000 Y-51.500 Z2.500 F180.000
G2 X-10.500 Y-50.000 Z2.500 I0.000 J1.500 K0.000 F180.000
G1 X-10.500 Y-17.000 Z2.500 F180.000
G2 X-9.000 Y-15.500 Z2.500 I1.500 J-0.000 K0.000 F180.000
G1 X-1.500 Y-15.500 Z2.500 F180.000
G1 X-1.500 Y-0.000 Z2.500 F180.000
G2 X0.000 Y1.500 Z2.500 I1.500 J-0.000 K0.000 F180.000
G1 X74.000 Y1.500 Z2.500 F180.000
G2 X75.485 Y0.212 Z2.500 I-0.000 J-1.500 K0.000 F180.000
G1 X75.485 Y0.212 Z2.000 F180.000
G2 X75.500 Y-0.000 Z2.000 I-1.485 J-0.212 K0.000 F180.000
G1 X75.500 Y-15.500 Z2.000 F180.000
G1 X83.000 Y-15.500 Z2.000 F180.000
G2 X84.500 Y-17.000 Z2.000 I-0.000 J-1.500 K0.000 F180.000
G1 X84.500 Y-50.000 Z2.000 F180.000
G2 X83.000 Y-51.500 Z2.000 I-1.500 J0.000 K0.000 F180.000
G1 X-9.000 Y-51.500 Z2.000 F180.000
G2 X-10.500 Y-50.000 Z2.000 I0.000 J1.500 K0.000 F180.000
G1 X-10.500 Y-17.000 Z2.000 F180.000
G2 X-9.000 Y-15.500 Z2.000 I1.500 J-0.000 K0.000 F180.000
G1 X-1.500 Y-15.500 Z2.000 F180.000
G1 X-1.500 Y-0.000 Z2.000 F180.000
G2 X0.000 Y1.500 Z2.000 I1.500 J-0.000 K0.000 F180.000
G1 X74.000 Y1.500 Z2.000 F180.000
G2 X75.485 Y0.212 Z2.000 I-0.000 J-1.500 K0.000 F180.000
G1 X75.485 Y0.212 Z1.500 F180.000
G2 X75.500 Y-0.000 Z1.500 I-1.485 J-0.212 K0.000 F180.000
G1 X75.500 Y-15.500 Z1.500 F180.000
G1 X83.000 Y-15.500 Z1.500 F180.000
G2 X84.500 Y-17.000 Z1.500 I-0.000 J-1.500 K0.000 F180.000
G1 X84.500 Y-50.000 Z1.500 F180.000
G2 X83.000 Y-51.500 Z1.500 I-1.500 J0.000 K0.000 F180.000
G1 X-9.000 Y-51.500 Z1.500 F180.000
G2 X-10.500 Y-50.000 Z1.500 I0.000 J1.500 K0.000 F180.000
G1 X-10.500 Y-17.000 Z1.500 F180.000
G2 X-9.000 Y-15.500 Z1.500 I1.500 J-0.000 K0.000 F180.000
G1 X-1.500 Y-15.500 Z1.500 F180.000
G1 X-1.500 Y-0.000 Z1.500 F180.000
G2 X0.000 Y1.500 Z1.500 I1.500 J-0.000 K0.000 F180.000
G1 X74.000 Y1.500 Z1.500 F180.000
G2 X75.485 Y0.212 Z1.500 I-0.000 J-1.500 K0.000 F180.000
G1 X75.485 Y0.212 Z1.000 F180.000
G2 X75.500 Y-0.000 Z1.000 I-1.485 J-0.212 K0.000 F180.000
G1 X75.500 Y-15.500 Z1.000 F180.000
G1 X83.000 Y-15.500 Z1.000 F180.000
G2 X84.500 Y-17.000 Z1.000 I-0.000 J-1.500 K0.000 F180.000
G1 X84.500 Y-50.000 Z1.000 F180.000
G2 X83.000 Y-51.500 Z1.000 I-1.500 J0.000 K0.000 F180.000
G1 X62.985 Y-51.500 Z1.000 F180.000
G1 X62.485 Y-51.500 Z1.500 F180.000
G1 X57.515 Y-51.500 Z1.500 F180.000
G1 X57.015 Y-51.500 Z1.000 F180.000
G1 X16.985 Y-51.500 Z1.000 F180.000
G1 X16.485 Y-51.500 Z1.500 F180.000
G1 X11.515 Y-51.500 Z1.500 F180.000
G1 X11.015 Y-51.500 Z1.000 F180.000
G1 X-9.000 Y-51.500 Z1.000 F180.000
G2 X-10.500 Y-50.000 Z1.000 I0.000 J1.500 K0.000 F180.000
G1 X-10.500 Y-17.000 Z1.000 F180.000
G2 X-9.000 Y-15.500 Z1.000 I1.500 J-0.000 K0.000 F180.000
G1 X-1.500 Y-15.500 Z1.000 F180.000
G1 X-1.500 Y-0.000 Z1.000 F180.000
G2 X0.000 Y1.500 Z1.000 I1.500 J-0.000 K0.000 F180.000
G1 X15.515 Y1.500 Z1.000 F180.000
G1 X16.015 Y1.500 Z1.500 F180.000
G1 X20.985 Y1.500 Z1.500 F180.000
G1 X21.485 Y1.500 Z1.000 F180.000
G1 X52.515 Y1.500 Z1.000 F180.000
G1 X53.015 Y1.500 Z1.500 F180.000
G1 X57.985 Y1.500 Z1.500 F180.000
G1 X58.485 Y1.500 Z1.000 F180.000
G1 X74.000 Y1.500 Z1.000 F180.000
G2 X75.485 Y0.212 Z1.000 I-0.000 J-1.500 K0.000 F180.000
G1 X75.485 Y0.212 Z0.500 F180.000
G2 X75.500 Y-0.000 Z0.500 I-1.485 J-0.212 K0.000 F180.000
G1 X75.500 Y-15.500 Z0.500 F180.000
G1 X83.000 Y-15.500 Z0.500 F180.000
G2 X84.500 Y-17.000 Z0.500 I-0.000 J-1.500 K0.000 F180.000
G1 X84.500 Y-50.000 Z0.500 F180.000
G2 X83.000 Y-51.500 Z0.500 I-1.500 J0.000 K0.000 F180.000
G1 X63.485 Y-51.500 Z0.500 F180.000
G1 X62.485 Y-51.500 Z1.500 F180.000
G1 X57.515 Y-51.500 Z1.500 F180.000
G1 X56.515 Y-51.500 Z0.500 F180.000
G1 X17.485 Y-51.500 Z0.500 F180.000
G1 X16.485 Y-51.500 Z1.500 F180.000
G1 X11.515 Y-51.500 Z1.500 F180.000
G1 X10.515 Y-51.500 Z0.500 F180.000
G1 X-9.000 Y-51.500 Z0.500 F180.000
G2 X-10.500 Y-50.000 Z0.500 I0.000 J1.500 K0.000 F180.000
G1 X-10.500 Y-17.000 Z0.500 F180.000
G2 X-9.000 Y-15.500 Z0.500 I1.500 J-0.000 K0.000 F180.000
G1 X-1.500 Y-15.500 Z0.500 F180.000
G1 X-1.500 Y-0.000 Z0.500 F180.000
G2 X0.000 Y1.500 Z0.500 I1.500 J-0.000 K0.000 F180.000
G1 X15.015 Y1.500 Z0.500 F180.000
G1 X16.015 Y1.500 Z1.500 F180.000
G1 X20.985 Y1.500 Z1.500 F180.000
G1 X21.985 Y1.500 Z0.500 F180.000
G1 X52.015 Y1.500 Z0.500 F180.000
G1 X53.015 Y1.500 Z1.500 F180.000
G1 X57.985 Y1.500 Z1.500 F180.000
G1 X58.985 Y1.500 Z0.500 F180.000
G1 X74.000 Y1.500 Z0.500 F180.000
G2 X75.485 Y0.212 Z0.500 I-0.000 J-1.500 K0.000 F180.000
G1 X75.485 Y0.212 Z0.000 F180.000
G2 X75.500 Y-0.000 Z0.000 I-1.485 J-0.212 K0.000 F180.000
G1 X75.500 Y-15.500 Z0.000 F180.000
G1 X83.000 Y-15.500 Z0.000 F180.000
G2 X84.500 Y-17.000 Z0.000 I-0.000 J-1.500 K0.000 F180.000
G1 X84.500 Y-50.000 Z0.000 F180.000
G2 X83.000 Y-51.500 Z0.000 I-1.500 J0.000 K0.000 F180.000
G1 X63.985 Y-51.500 Z0.000 F180.000
G1 X62.485 Y-51.500 Z1.500 F180.000
G1 X57.515 Y-51.500 Z1.500 F180.000
G1 X56.015 Y-51.500 Z0.000 F180.000
G1 X17.985 Y-51.500 Z0.000 F180.000
G1 X16.485 Y-51.500 Z1.500 F180.000
G1 X11.515 Y-51.500 Z1.500 F180.000
G1 X10.015 Y-51.500 Z0.000 F180.000
G1 X-9.000 Y-51.500 Z0.000 F180.000
G2 X-10.500 Y-50.000 Z0.000 I0.000 J1.500 K0.000 F180.000
G1 X-10.500 Y-17.000 Z0.000 F180.000
G2 X-9.000 Y-15.500 Z0.000 I1.500 J-0.000 K0.000 F180.000
G1 X-1.500 Y-15.500 Z0.000 F180.000
G1 X-1.500 Y-0.000 Z0.000 F180.000
G2 X0.000 Y1.500 Z0.000 I1.500 J-0.000 K0.000 F180.000
G1 X14.515 Y1.500 Z0.000 F180.000
G1 X16.015 Y1.500 Z1.500 F180.000
G1 X20.985 Y1.500 Z1.500 F180.000
G1 X22.485 Y1.500 Z0.000 F180.000
G1 X51.515 Y1.500 Z0.000 F180.000
G1 X53.015 Y1.500 Z1.500 F180.000
G1 X57.985 Y1.500 Z1.500 F180.000
G1 X59.485 Y1.500 Z0.000 F180.000
G1 X74.000 Y1.500 Z0.000 F180.000
G2 X75.485 Y0.212 Z0.000 I-0.000 J-1.500 K0.000 F180.000
G0 X75.485 Y0.212 Z8.000
(Finish operation: DressupTag)
(Begin postamble)
M5
G17 G90
M2
